localPackages/DesignSystem/Sources/DesignSystem/Resources/Assets.xcassets/IconSet/ic-arrow-over-square.imageset/ic-arrow-over-square.svg

<svg width="24" height="24" viewBox="0 0 24 24" fill="none" xmlns="http://www.w3.org/2000/svg">
<g id="ic-arrow-over-square">
<path id="Icon" fill-rule="evenodd" clip-rule="evenodd" d="M17.0303 2.78009L16.0604 3.74998H16.6072C18.1535 3.74998 19.5738 4.28104 20.6349 5.16581C21.7662 6.10911 22.5 7.46783 22.5 8.99998C22.5 9.4142 22.1643 9.74998 21.75 9.74998C21.3358 9.74998 21 9.4142 21 8.99998C21 7.96841 20.5089 7.01377 19.6742 6.31785C18.8897 5.6637 17.8116 5.24998 16.6072 5.24998H16.3182L17.0303 5.96207C17.3232 6.25496 17.3232 6.72983 17.0303 7.02273C16.7374 7.31562 16.2626 7.31562 15.9697 7.02273L14.0605 5.11354C13.6504 4.70349 13.6504 4.03866 14.0605 3.62861L15.9697 1.71943C16.2626 1.42653 16.7374 1.42653 17.0303 1.71943C17.3232 2.01232 17.3232 2.48719 17.0303 2.78009ZM3.75 7.49998C2.50736 7.49998 1.5 8.50734 1.5 9.74998V20.25C1.5 21.4926 2.50736 22.5 3.75 22.5H14.25C15.4926 22.5 16.5 21.4926 16.5 20.25V9.74998C16.5 8.50734 15.4926 7.49998 14.25 7.49998H3.75ZM3 9.74998C3 9.33577 3.33579 8.99998 3.75 8.99998H14.25C14.6642 8.99998 15 9.33577 15 9.74998V20.25C15 20.6642 14.6642 21 14.25 21H3.75C3.33579 21 3 20.6642 3 20.25V9.74998Z" fill="#0F0F0F"/>
</g>
</svg>

<svg xmlns="http://www.w3.org/2000/svg" width="24" height="24" viewBox="0 0 24 24">
  <g class="ic-arrow-over-square">
    <path fill-rule="evenodd" d="m17.03 2.78-.97.97h.547c1.547 0 2.967.531 4.028 1.416C21.766 6.109 22.5 7.468 22.5 9A.75.75 0 1 1 21 9c0-1.031-.491-1.986-1.326-2.682-.784-.654-1.862-1.068-3.067-1.068h-.289l.712.712a.75.75 0 0 1-1.06 1.061l-1.91-1.91a1.05 1.05 0 0 1 0-1.484l1.91-1.91a.75.75 0 1 1 1.06 1.061ZM3.75 7.5A2.25 2.25 0 0 0 1.5 9.75v10.5a2.25 2.25 0 0 0 2.25 2.25h10.5a2.25 2.25 0 0 0 2.25-2.25V9.75a2.25 2.25 0 0 0-2.25-2.25H3.75ZM3 9.75A.75.75 0 0 1 3.75 9h10.5a.75.75 0 0 1 .75.75v10.5a.75.75 0 0 1-.75.75H3.75a.75.75 0 0 1-.75-.75V9.75Z" class="Icon"/>
  </g>
</svg>
